X:1
T:Il est grand le mystre de la foi
M:none
L:1/8
K:Em
E E G8 E8 F2||[M:6/8]GGG E2G|G3 FEE|D3
w:Il est grand~le~Mys-t\-~re~de~la foi.|Nous pro-cla-mons ta|mort, Sei-gneur J-|sus,
DEE|G2G GEG|[M:9/8]A3 GAB GEG|[M:6/8]G3 (2GF|E3 D3||
w:nous c-l-|brons ta r-sur-rec-|tion, nous at-ten-dons ta ve-|nue dans la|gloi-re.|
